_site/images/features/included.svg

<svg height="40" viewBox="0 0 40 40" width="40" xmlns="http://www.w3.org/2000/svg"><g fill="none" fill-rule="evenodd"><rect fill="#0b7a76" height="40" rx="7" width="40"/><g fill="#fff" fill-rule="nonzero" stroke="#fff" stroke-width=".5" transform="translate(8 8)"><path d="m4.40625 0h-1.125c-1.80928125 0-3.28125 1.47196875-3.28125 3.28125v17.4375c0 1.8092813 1.47196875 3.28125 3.28125 3.28125h1.125c1.80928125 0 3.28125-1.4719687 3.28125-3.28125v-17.4375c0-1.80928125-1.47196875-3.28125-3.28125-3.28125zm1.40625 20.71875c0 .7754063-.63084375 1.40625-1.40625 1.40625h-1.125c-.77540625 0-1.40625-.6308438-1.40625-1.40625v-17.4375c0-.77540625.63084375-1.40625 1.40625-1.40625h1.125c.77540625 0 1.40625.63084375 1.40625 1.40625z"/><path d="m20.71875 0h-7.78125c-1.8092813 0-3.28125 1.47196875-3.28125 3.28125v1.125c0 1.80928125 1.4719687 3.28125 3.28125 3.28125h7.78125c1.8092813 0 3.28125-1.47196875 3.28125-3.28125v-1.125c0-1.80928125-1.4719687-3.28125-3.28125-3.28125zm1.40625 4.40625c0 .77540625-.6308438 1.40625-1.40625 1.40625h-7.78125c-.7754063 0-1.40625-.63084375-1.40625-1.40625v-1.125c0-.77540625.6308438-1.40625 1.40625-1.40625h7.78125c.7754063 0 1.40625.63084375 1.40625 1.40625z"/><path d="m20.71875 9.703125h-7.78125c-1.8092813 0-3.28125 1.4719687-3.28125 3.28125v7.734375c0 1.8092812 1.4719687 3.28125 3.28125 3.28125h7.78125c1.8092813 0 3.28125-1.4719688 3.28125-3.28125 0-.5177812-.4197188-.9375-.9375-.9375s-.9375.4197188-.9375.9375c0 .7754063-.6308438 1.40625-1.40625 1.40625h-7.78125c-.7754063 0-1.40625-.6308438-1.40625-1.40625v-7.734375c0-.7754063.6308438-1.40625 1.40625-1.40625h7.78125c.7754063 0 1.40625.6308438 1.40625 1.40625v3.046875c0 .5177812.4197188.9375.9375.9375s.9375-.4197188.9375-.9375v-3.046875c0-1.8092813-1.4719687-3.28125-3.28125-3.28125z"/></g></g></svg>

<?xml version="1.0" encoding="UTF-8"?>
<svg width="40px" height="40px" viewBox="0 0 40 40" version="1.1" xmlns="http://www.w3.org/2000/svg" xmlns:xlink="http://www.w3.org/1999/xlink">
    <!-- Generator: Sketch 52.6 (67491) - http://www.bohemiancoding.com/sketch -->
    <title>Group 54</title>
    <desc>Created with Sketch.</desc>
    <g id="Website" stroke="none" stroke-width="1" fill="none" fill-rule="evenodd">
        <g id="6--Pricing" transform="translate(-139.000000, -1330.000000)">
            <g id="Group-54" transform="translate(139.000000, 1330.000000)">
                <rect id="Rectangle" fill="#0B7A76" x="0" y="0" width="40" height="40" rx="7"></rect>
                <g id="layout" transform="translate(8.000000, 8.000000)" fill="#FFFFFF" fill-rule="nonzero" stroke="#FFFFFF" stroke-width="0.5">
                    <path d="M4.40625,0 L3.28125,0 C1.47196875,0 0,1.47196875 0,3.28125 L0,20.71875 C0,22.5280313 1.47196875,24 3.28125,24 L4.40625,24 C6.21553125,24 7.6875,22.5280313 7.6875,20.71875 L7.6875,3.28125 C7.6875,1.47196875 6.21553125,0 4.40625,0 Z M5.8125,20.71875 C5.8125,21.4941563 5.18165625,22.125 4.40625,22.125 L3.28125,22.125 C2.50584375,22.125 1.875,21.4941562 1.875,20.71875 L1.875,3.28125 C1.875,2.50584375 2.50584375,1.875 3.28125,1.875 L4.40625,1.875 C5.18165625,1.875 5.8125,2.50584375 5.8125,3.28125 L5.8125,20.71875 Z" id="Shape"></path>
                    <path d="M20.71875,0 L12.9375,0 C11.1282187,0 9.65625,1.47196875 9.65625,3.28125 L9.65625,4.40625 C9.65625,6.21553125 11.1282187,7.6875 12.9375,7.6875 L20.71875,7.6875 C22.5280313,7.6875 24,6.21553125 24,4.40625 L24,3.28125 C24,1.47196875 22.5280313,0 20.71875,0 Z M22.125,4.40625 C22.125,5.18165625 21.4941562,5.8125 20.71875,5.8125 L12.9375,5.8125 C12.1620937,5.8125 11.53125,5.18165625 11.53125,4.40625 L11.53125,3.28125 C11.53125,2.50584375 12.1620938,1.875 12.9375,1.875 L20.71875,1.875 C21.4941563,1.875 22.125,2.50584375 22.125,3.28125 L22.125,4.40625 Z" id="Shape"></path>
                    <path d="M20.71875,9.703125 L12.9375,9.703125 C11.1282187,9.703125 9.65625,11.1750937 9.65625,12.984375 L9.65625,20.71875 C9.65625,22.5280312 11.1282187,24 12.9375,24 L20.71875,24 C22.5280313,24 24,22.5280312 24,20.71875 C24,20.2009688 23.5802812,19.78125 23.0625,19.78125 C22.5447188,19.78125 22.125,20.2009688 22.125,20.71875 C22.125,21.4941563 21.4941562,22.125 20.71875,22.125 L12.9375,22.125 C12.1620937,22.125 11.53125,21.4941562 11.53125,20.71875 L11.53125,12.984375 C11.53125,12.2089687 12.1620938,11.578125 12.9375,11.578125 L20.71875,11.578125 C21.4941563,11.578125 22.125,12.2089688 22.125,12.984375 L22.125,16.03125 C22.125,16.5490312 22.5447188,16.96875 23.0625,16.96875 C23.5802812,16.96875 24,16.5490312 24,16.03125 L24,12.984375 C24,11.1750937 22.5280313,9.703125 20.71875,9.703125 Z" id="Path"></path>
                </g>
            </g>
        </g>
    </g>
</svg>
